Numix-GalliumOS/64/actions/tag-new.svg

<svg xmlns="http://www.w3.org/2000/svg" viewBox="0 0 64 64">
 <path d="m 31 4.75 -28.25 30.422 26.08 26.08 30.422 -30.422 l 0 -26.08 -28.25 0 z m 14.13 8.07 a 6.05 6.05 0 0 1 6.05 6.05 6.05 6.05 0 0 1 -6.05 6.05 6.05 6.05 0 0 1 -6.05 -6.05 6.05 6.05 0 0 1 6.05 -6.05 z" style="stroke-dasharray:none;stroke-opacity:1;fill:#e6e1a2;opacity:1;stroke-miterlimit:4;fill-opacity:1;stroke:#a3a093;stroke-linecap:round;stroke-linejoin:round;stroke-width:1.5"/>
 <path d="m 64 40 l -12 0 l 0 -12 l -12 0 l 0 12 l -12 0 l 0 12 l 12 0 l 0 12 l 12 0 l 0 -12 l 12 0 Z" style="fill:#859900"/>
</svg>

<?xml version="1.0" encoding="UTF-8" standalone="no"?>
<svg
   xmlns:dc="http://purl.org/dc/elements/1.1/"
   xmlns:cc="http://creativecommons.org/ns#"
   xmlns:rdf="http://www.w3.org/1999/02/22-rdf-syntax-ns#"
   xmlns:svg="http://www.w3.org/2000/svg"
   xmlns="http://www.w3.org/2000/svg"
   xmlns:sodipodi="http://sodipodi.sourceforge.net/DTD/sodipodi-0.dtd"
   xmlns:inkscape="http://www.inkscape.org/namespaces/inkscape"
   width="64"
   height="64"
   viewBox="0 0 64 64"
   id="svg2"
   version="1.1"
   inkscape:version="0.91 r13725"
   sodipodi:docname="tag-new1.svg">
  <metadata
     id="metadata12">
    <rdf:RDF>
      <cc:Work
         rdf:about="">
        <dc:format>image/svg+xml</dc:format>
        <dc:type
           rdf:resource="http://purl.org/dc/dcmitype/StillImage" />
        <dc:title></dc:title>
      </cc:Work>
    </rdf:RDF>
  </metadata>
  <defs
     id="defs10" />
  <sodipodi:namedview
     pagecolor="#ffffff"
     bordercolor="#666666"
     borderopacity="1"
     objecttolerance="10"
     gridtolerance="10"
     guidetolerance="10"
     inkscape:pageopacity="0"
     inkscape:pageshadow="2"
     inkscape:window-width="1366"
     inkscape:window-height="704"
     id="namedview8"
     showgrid="true"
     inkscape:zoom="22.627417"
     inkscape:cx="39.348534"
     inkscape:cy="24.928932"
     inkscape:window-x="0"
     inkscape:window-y="27"
     inkscape:window-maximized="1"
     inkscape:current-layer="svg2">
    <inkscape:grid
       type="xygrid"
       id="grid4134" />
  </sodipodi:namedview>
  <path
     inkscape:connector-curvature="0"
     style="opacity:1;fill:#ffffff;fill-opacity:1;stroke:none;stroke-width:0.5;stroke-linecap:round;stroke-linejoin:round;stroke-miterlimit:4;stroke-dasharray:none;stroke-opacity:1"
     d="M 28,4 0,34.152344 25.847656,60 56,29.847656 56,4 28,4 Z m 14,8 a 6,6 0 0 1 6,6 6,6 0 0 1 -6,6 6,6 0 0 1 -6,-6 6,6 0 0 1 6,-6 z"
     id="rect4170" />
  <path
     style="fill:#859900"
     d="M 64 40 L 52 40 L 52 28 L 40 28 L 40 40 L 28 40 L 28 52 L 40 52 L 40 64 L 52 64 L 52 52 L 64 52 Z "
     id="path6" />
</svg>
